X:1
T:Segur, 87.87.87
T:Segur, 87.87.87
T:Joseph Perry Holbrook, 1862
T:Public Domain Courtesy of the Cyber Hymnal™
C:Joseph Perry Holbrook, 1862
Z:Public Domain
Z:Courtesy of the Cyber Hymnal™
%%score ( 1 2 ) 3
L:1/8
Q:1/4=115
M:9/8
K:D
V:1 treble 
V:2 treble 
V:3 bass 
V:1
 [DA]2 [DF] | [Fd]3- [Fd]2 [Fc] (ed)[GB] | [FA]3 [DF]3 ([DF][EG])[FA] | %3
 [CE]3- [CE]2 [CE] [CA]2 [CG] | [DF]3- [DF]2 z [DA]2 [DF] | [Fd]3- [Fd]2 [Fc] (ed)[GB] | %6
 [FA]3 [DF]3 ([Dd][Ec])[FB] | [EAe]3- [EAe]2 [CA] [Ec]2 [DB] | [CA]3- [CA]2 z ([CE][^B,^D])[CE] | %9
 [EG]3 [CE]3 ([EG][^DF])[EG] | [GB]3 [FA]3 (dc)[Ge] | [FA]3- [FA]2 [DF] (GE)[CF] | [A,D]6 |] %13
V:2
 x3 | x6 G2 x | x9 | x9 | x9 | x6 G2 x | x9 | x9 | x9 | x9 | x6 F2 x | x6 C2 x | x6 |] %13
V:3
 [D,F,]2 [D,F,] | [D,A,]3- [D,A,]2 [D,A,] [G,,D,B,]2 [G,,D,C] | [D,D]3 [D,A,]3 [D,A,]2 [D,A,] | %3
 [A,,A,]3- [A,,A,]2 [A,,A,] [A,,E,]2 [A,,A,] | [D,A,]3- [D,A,]2 z [D,F,]2 [D,F,] | %5
 [D,A,]3- [D,A,]2 [D,A,] [G,,B,]2 [G,,C] | [D,D]3 [D,A,]3 ([B,,B,][C,^A,])[D,B,] | %7
 [E,C]3- [E,C]2 [E,A,] [E,A,]2 [E,^G,] | [A,,A,]3- [A,,A,]2 z [A,,A,]2 [A,,A,] | %9
 [A,,E,]3 [A,,A,]3 [A,,A,]2 [A,,A,] | [D,A,]3 [D,A,]3 [D,A,]2 [D,B,] | %11
 [D,D]3- [D,D]2 [D,A,] [A,,A,]2 [A,,G,] | [D,F,]6 |] %13

